!!!OTL: Redhead 76 (Go to dark Gethsemane)
!!!COL: LSB
**kern	**text	**text	**text	**text
*clefG2	*	*	*	*
*k[b-e-a-]	*	*	*	*
*M4/4	*	*	*	*
*E-:	*	*	*	*
=1	=1	=1	=1	=1
4e-	1.Go	2.Fol-	3.Cal-	4.Ear-
4e-	to	low	v'ry's	ly
4f	dark	to	mourn-	has-
4g	Geth-	the	ful	ten
=2	=2	=2	=2	=2
4.a-	se-	judge-	moun-	to
8a-	ma-	ment	tain	the
2g	ne,	hall,	climb;	tomb
=3	=3	=3	=3	=3
4e-	ye	view	there,	where
4e-	that	the	a-	they
4f	feel	Lord	dor-	laid
4g	the	of	ring	his
=4	=4	=4	=4	=4
4f	temp-	Life	at	breath-
4f	ters'	ar-	His	less
2e-	pow'r;	raigned;	feet,	clay;
=5	=5	=5	=5	=5
4e-	Your	O	Mark	all
4g	Re-	the	that	is
4b-	deem-	worm-	mir-	sol-
4b-	er's	wood	a-	i-
=6	=6	=6	=6	=6
4cc	con-	and	cle	tude
4cc	flict	the	of	and
2b-	see,	gall!	time,	gloom.
=7	=7	=7	=7	=7
4e-	watch	O	God's	Who
4g	with	the	own	has
4b-	Him	pangs	sac-	tak-
4b-	one	His	ri-	en
=8	=8	=8	=8	=8
4cc	bit-	soul	fice	Him
4cc	ter	sus-	com-	a-
2b-	hour,	tained!	plete.	way?
=9	=9	=9	=9	=9
4e-	Turn	Shun	"It	Christ
4e-	not	not	is	is
4f	from	suf-	fin-	ris'n!
4g	His	f'ring,	ished!"	He
=10	=10	=10	=10	=10
4.a-	griefs	shame,	hear	meets
8a-	a-	or	Him	our
2g	way;	loss;	cry;	eyes;
=11	=11	=11	=11	=11
4e-	learn	learn	learn	Sa-
4f	from	from	from	vior,
4g	Je-	Christ	Je-	teach
4f	sus	to	sus	us
=12	=12	=12	=12	=12
4e-	Christ	bear	Christ	so
4d	to	the	to	to
2e-	pray.	cross.	die.	rise.
==	==	==	==	==
*-	*-	*-	*-	*-
